X: 3
T: Supple Dancer, The
Z: ceolachan
S: https://thesession.org/tunes/7520#setting18986
R: hornpipe
M: 4/4
L: 1/8
K: Gmaj
(3BdB G>B c>AF>A | a>fg>e d>cB>A | (3BdB G>B c>BA>G | F>Ad>f e>dc>A |(3BdB G>B c>AF>A | a>fg>e d>cB>A | (3BdB (3GAB c>AF>A | G2 B2 G2 :|d2 g2 f2 e2 | (3ded (3cBA G2 F2 | Eedc BAGF | AGFE D2 B>c |d2 g2 f2 e2 | (3ded (3cBA G2 F2 | Eedc BAGF | A2 G2 G2 :|
